X: 39
T:Dull Sir John
M:6/8
L:1/8
K:Gm
G2 ^F G2 A|B>AB cAF|B2 A B2 c|d3 d2 c|d2 c d2 =e|f>gf F2 B|A2 B c>dc|B3 B3:|
|: d2 e d2 =e|f>gf F3 B|A2 B c>d=B|c3 c2 f|d>cd c2 A|B b2 a2 d|d2 g ga^f|g3 g3:|

